X:714
T:Mrs. MacLeod of Ellanreoch
T:Mrs. MacLeod of Elleanreach
R:Strathspey
B:The Athole Collection
M:C
L:1/8
K:D
A|d>gf>e d>BA>d|B<F d>F B<E E>c|d>ef>d f<ae<f|d/c/B/A/ d<F D/D/D D:|
|:d|A<D A>F A<D D>d|B/A/B/c/ d>F B<E E>d|1 A<D A>F A<D D>d|
B/A/B/c/ d>F D/D/D D:|2 A<D A>F D/E/F/G/ A<g|f>de>f d/d/d d||

